layouts/icon-pack/spell_shadow.svg

<?xml version="1.0" encoding="UTF-8"?>
<svg width="1200pt" height="1200pt" version="1.1" viewBox="0 0 1200 1200" xmlns="http://www.w3.org/2000/svg">
 <g fill="#fff">
  <path d="m1009.1 785.7-3.5859-2.8828c-2.0273-1.3203-4.3789-2.0664-6.7969-2.1562-4.0391-0.67969-8.1875 0.082031-11.719 2.1562-2.6367 1.6875-4.875 3.9258-6.5625 6.5625-1.1836 1.918-1.9375 4.0664-2.2031 6.3047-0.78516 3.2344-0.78516 6.6094 0 9.8438 1.0977 3.8438 3.4258 7.2227 6.6328 9.6094 1.1328 1.1211 2.5391 1.9258 4.0781 2.3438 1.418 0.83984 3.0391 1.2773 4.6875 1.2656 4.043 0.67187 8.1953-0.10938 11.719-2.2031 2.7969-1.7734 5.1914-4.1133 7.0312-6.8672 1.7266-3.0352 2.6289-6.4688 2.625-9.9609-0.125-5.25-2.2344-10.258-5.9062-14.016z"/>
  <path d="m851.2 489.47c1.125 0.56641 2.3125 1 3.5391 1.2891 4.5742 1.6367 9.6367 1.168 13.828-1.2891 2.6016-1.5 4.7617-3.6641 6.2578-6.2695 1.4922-2.6055 2.2695-5.5625 2.25-8.5664-0.125-1.6875-0.36719-3.3633-0.72656-5.0156 0.34375-6.6367-0.19141-13.285-1.5938-19.781-0.9375-3.3008-2.8242-6.2539-5.4219-8.4961-2.6016-2.2422-5.8008-3.6719-9.2031-4.1133-6.3984-0.84375-14.648 2.1094-17.531 8.4141-0.14062 0.26562-0.26562 0.53906-0.375 0.82031-0.1875 0.30469-0.42187 0.53906-0.58594 0.84375-0.84375 1.3359-1.5586 2.7461-2.1328 4.2188-1.4688 3.7266-2.1367 7.7188-1.9688 11.719 0.19141 5.9023 1.7969 11.676 4.6875 16.828 1.7539 4.1172 4.9453 7.457 8.9766 9.3984z"/>
  <path d="m756.82 179.41c10.148-16.641 12.023-42.609-2.3438-57.07-5.5078-8.3672-17.977-12.492-25.43-3.2812-12.305 15.188-11.719 37.945-6.2109 55.898 1.3789 4.6641 4.5156 8.6094 8.75 11.004 4.2344 2.3945 9.2344 3.0508 13.941 1.8281 4.7109-1.2227 8.7578-4.2266 11.293-8.3789z"/>
  <path d="m335.16 442.52c4.9648 0.66797 10.008-0.47266 14.203-3.2148 4.1953-2.7422 7.2656-6.8984 8.6484-11.715 1.2891-4.3359 2.625-8.6484 3.9141-12.961 1.043-4 0.89062-8.2188-0.44531-12.129-1.332-3.9141-3.7852-7.3477-7.0547-9.8789-2.8555-2.2539-6.2773-3.6719-9.8906-4.1016-2.168-0.29297-4.3711-0.29297-6.5391 0-7.3594 0.53906-15.469 5.4141-16.547 13.172l-0.21094 1.4297c-3.0469 5.6484-3.5391 12.68-4.125 18.961-0.023437 5.5234 2.1719 10.828 6.0938 14.719 3.2812 3.1172 7.4648 5.1211 11.953 5.7188z"/>
  <path d="m228.7 919.69c-1.3398-3.1914-3.5391-5.9492-6.3516-7.9688-4.4453-3.8633-10.098-6.0586-15.984-6.2109l-5.6016 0.75c-2.6836 0.61719-5.1602 1.918-7.1953 3.7734-3.6562 2.7227-6.3125 6.5781-7.5469 10.969-1.2891 4.4336-1.2891 9.1367 0 13.57 0.88281 2.5938 2.1719 5.0312 3.8203 7.2188 2.457 6.0156 7.5508 10.566 13.805 12.328 7.2461 1.8945 14.953-0.14063 20.32-5.3672 1.5703-1.5352 2.9336-3.2695 4.0547-5.1562 1.1953-1.9375 2.0586-4.0586 2.5547-6.2812 0.57422-2.2188 0.83594-4.5078 0.77344-6.7969-0.035156-2.3828-0.40234-4.75-1.1016-7.0312-0.42188-1.3008-0.94141-2.5703-1.5469-3.7969z"/>
  <path d="m747.66 901.24c0-0.28125 0-0.5625 0.11719-0.86719-0.011719-0.085938-0.011719-0.17188 0-0.25781-0.11719 0.375-0.11719 0.75-0.11719 1.125z"/>
  <path d="m726.33 884.2 0.42188-0.25781h-0.14062z"/>
  <path d="m1008.1 907.17c0-0.70312 0.21094-1.3828 0.28125-2.1094 0.5-3.6758-0.76953-7.3672-3.4219-9.9609-1.2617-2.8594-2.9453-5.5156-4.9922-7.875-6.7031-7.6875-17.625-2.5078-20.695 5.4609-1.918 5.6367-3.1055 11.496-3.5391 17.438-6.4219 9.6094-18.07 13.242-30.469 8.9531-17.297-5.9531-27.211-22.711-27.586-40.289-0.39844-18.023 4.2891-36.469 6.6562-54.258 2.7188-20.414 4.8984-40.898 6-61.453 2.2812-35.945 0.15625-72.031-6.3281-107.46-6.1406-31.734-16.406-67.125-39.07-91.172-2.9062-3.8945-7.7891-5.7812-12.562-4.8516-10.734 2.0859-14.508 10.43-10.688 20.648 10.047 26.07 15.457 53.699 15.984 81.633 0.16406 13.383 0.63281 29.391-6.5156 41.344-7.1484 11.953-19.195 14.977-28.125 3.9141-15.117-18.75-7.1953-50.016-12.398-72.094-6.2109-26.32-28.125-44.531-35.156-70.312-7.4766-27.211 1.2422-56.977 4.1719-84.258 2.7656-25.641 1.9922-52.242-5.1562-77.18-7.6172-25.945-25.359-47.039-34.008-72.422-8.8359-25.992-5.625-52.523-5.7188-79.312 3.5859-8.625-0.70313-20.93-12.961-21.094-47.836-0.9375-73.828 45.914-70.5 89.062 1.7812 23.203 17.508 50.766 10.523 73.734-3.8203 12.539-14.273 17.273-26.531 11.719-10.359-4.6875-16.406-15.117-20.695-25.148-20.93-50.039-21.281-110.16-19.805-163.55 0.79687-28.125 3-56.016 4.4531-84.047 0.91406-17.625 1.8516-38.695-8.5781-53.602-0.71484-2.3164-1.5664-4.5859-2.5547-6.7969-3.6797-8.2734-18-6.1875-19.641 2.5547-3.4922 18.75-5.9531 35.156-15.727 52.219-9.375 16.406-21.891 30.469-34.078 44.789-23.273 27.422-41.836 56.648-51.211 91.734-8.6133 32.859-9.2227 67.309-1.7812 100.45 6.7266 29.789 30.258 78.094-3.8438 99.891-1.8945 1.1953-3.5547 2.7305-4.8984 4.5234-21.094 17.531-39.211 40.148-53.906 62.227-9.8203 14.699-18.277 30.266-25.266 46.5-6.5391 15.164-9.9141 35.789-21.094 48.234-4.6875 5.1328-14.648 10.945-19.383 3.1641-2.625-4.3125 0-12.75 0.77344-17.367 2.0859-12.82 5.1094-25.945 0.39844-38.578-5.6719-15.141-19.734-17.953-30.469-28.125-5.8359-5.4062-9.7734-12.543-11.238-20.359-1.4648-7.8164-0.375-15.898 3.1055-23.047 1.8281-5.4258 0.0625-11.418-4.4219-14.984-4.4844-3.5625-10.719-3.9336-15.594-0.92969-37.055 31.758-52.969 85.57-49.875 133.12 1.8047 27.539 11.156 51.797 20.648 77.344 4.4766 12.047 9.0234 24.609 9.7031 37.5 0.84375 16.406-5.8125 31.008-12.141 45.75-19.148 44.531-18.469 93.023 6 135.73 11.449 20.035 27.613 36.98 47.086 49.359 23.273 14.648 54.07 22.242 70.969 45.656 16.898 23.414-44.766 44.086-60.703 44.273-37.266 0.46875-47.367-49.406-51.562-78.211-2.2031-15.07-28.641-11.719-26.836 3.6328 0.60938 5.25 1.3125 10.641 2.1328 16.102-4.4062 53.438 12.797 115.76 68.906 132.77 27.375 8.2969 59.93 6.6328 86.977-2.1797 13.727-4.3516 26.664-10.879 38.32-19.336 8.8125-6.5156 14.344-12.117 18.445-19.617 60.562 16.008 134.7 16.828 193.1-6.8672 39.844-16.148 78-47.859 91.406-89.062 11.016-4.6875 30.07 1.9688 39.703 3.8438 16.125 3.1641 32.156 7.0312 48.422 9.375 29.742 4.5 60.398 6.2344 89.719-1.8984 26.086-7.2656 48.727-22.266 63.82-44.906 8.625-12.586 15.867-32.742 14.016-49.945zm-589.85-79.172c-1.0234 1.7031-2.3594 3.1992-3.9375 4.4062-2.6367 2-5.832 3.1289-9.1406 3.2344-3.2461 0.1875-6.4727-0.62891-9.2344-2.3438-3.2578-1.2578-6.0664-3.4531-8.082-6.3047-2.0156-2.8516-3.1406-6.2383-3.2383-9.7266 0.015625-3.332 0.99219-6.5859 2.8125-9.375 1.3477-3.375 3.8359-6.1719 7.0312-7.8984 4.0938-2.2344 8.875-2.8594 13.406-1.7578 3.3633 0.94531 6.4141 2.7656 8.8477 5.2734 2.4336 2.5039 4.1602 5.6094 5.0039 9 1.4336 5.4219 0.14063 11.199-3.4688 15.492zm225-257.13c-0.13672-2.082 0.29297-4.1641 1.2422-6.0234 0.23828-0.83594 0.60938-1.6289 1.1016-2.3438 2.5078-4.8672 7.2305-8.2109 12.656-8.9531 3.2852-0.4375 6.625 0.089844 9.6172 1.5234 2.9883 1.4297 5.4922 3.7031 7.2109 6.5391l0.16406 0.25781c2.5586 4.582 2.8945 10.078 0.91797 14.938-1.9805 4.8594-6.0586 8.5547-11.09 10.047-1.9219 0.49219-3.9141 0.63281-5.8828 0.42188h0.82031c-4.4922 0.17187-8.8477-1.5781-11.977-4.8047-1.0586-1.125-1.9883-2.3672-2.7656-3.7031-1.1289-1.7266-1.7695-3.7266-1.8516-5.7891-0.25391-0.67187-0.35156-1.3945-0.28125-2.1094zm109.62 330.09c-0.089844 0.78906-0.22266 1.5703-0.39844 2.3438-0.73047 2.9922-2.3672 5.6875-4.6875 7.7109-1.2148 1.4883-2.6523 2.7773-4.2656 3.8203-1.5781 1.2383-3.3867 2.1562-5.3203 2.6953l-4.0781 0.53906c-4.0352-0.085937-7.8906-1.6836-10.805-4.4766-3.2031-2.8984-5.0898-6.9766-5.2266-11.297-0.90625-4.0547-0.35156-8.3008 1.5703-11.984 1.9219-3.6875 5.0859-6.5703 8.9297-8.1484 1.5508-0.77344 3.2383-1.2422 4.9688-1.3828 2.4844-0.30859 5.0078-0.19141 7.4531 0.35156 4.2031 1.1016 7.7773 3.8555 9.9141 7.6406 2.1328 3.6836 2.7852 8.0391 1.8281 12.188zm30.844-36c-7.5469 2.0156-16.195-3.8203-15.82-12.047 0.58594-12.703 9.0938-21.094 3.9375-34.359-0.81641-2.0195-1.8398-3.9531-3.0469-5.7656-5.293-5.5938-12.156-9.4531-19.688-11.062-10.617-2.7656-19.43-2.6484-26.719 6.6094-0.84375 1.0781-1.5938 2.1562-2.3438 3.1875-1.1445 12.934-5.3789 25.398-12.352 36.352-9.7109 14.379-22.523 26.395-37.5 35.156-16.266 9.8438-31.242 10.195-49.219 13.336-18.75 3.2578-32.25 19.781-51.75 23.672-17.203 3.4219-34.922 1.8047-52.195-0.14062-18.094-2.0391-35.93-5.6016-51.82-14.953-12.633-7.4531-29.625-19.148-32.977-34.195-1.0781-4.8516 2.3438-11.719 8.3203-10.945 12.891 1.6172 20.93 10.617 31.688 17.32 12.281 7.6406 25.055 10.922 39.258 12.703 14.203 1.7812 29.016 3.7266 43.289 2.5078 9.1992-0.92969 18.043-4.0586 25.781-9.1172 5.0391-4.3359 10.242-8.5078 15.094-13.031l3.5391-5.8359c0.375-1.5312 0.48828-3.1172 0.32813-4.6875-1.0156-7.0508-7.3086-12.117-14.414-11.602-19.547 1.0312-38.18 5.8359-57.492-2.7656-35.156-15.633-60.75-64.219-68.391-100.1-5.0156-23.438-0.65625-45.609 7.5-67.852s12.445-46.312 21.094-68.32c6.7969-17.086 18.75-31.992 37.125-36.961 20.109-5.4375 42.562 1.6875 62.789 3.1406 4.5039 0.15234 8.3789 3.2266 9.5586 7.5742 1.1758 4.3477-0.61719 8.957-4.4258 11.363-19.477 13.852-39.539 0-59.719 7.7109-15.75 6-19.594 26.039-22.992 43.078-1.2891 11.836 0 20.484 2.7422 26.766 2.3594 5.5156 7.4258 9.3984 13.363 10.246 5.9414 0.84766 11.891-1.4648 15.699-6.0977 17.367-21.352 48.938-36.867 70.312-39.352 48.047-5.6016 95.391 26.836 116.3 68.766 4.5234 9.0703-0.86719 21.094-12.023 20.93-7.4531-0.1875-19.195-2.1562-26.367 0.30469-6.6094 2.3438-12.656 16.406 5.0156 28.383 1.5 1.0078 3.2578 1.3125 4.6875 2.1328 11.109 1.6406 22.406 2.625 33.398 4.9688 17.156 3.6562 34.172 10.266 47.742 21.609 13.578 10.973 21.836 27.211 22.711 44.648 0.44531 14.742-4.3828 32.508-20.133 36.727z"/>
  <path d="m639.56 739.9c-3.5703-5.9102-8.6992-10.723-14.828-13.902-6.1289-3.1797-13.02-4.6055-19.906-4.1211-6.1055 0.28125-12.078 1.8789-17.508 4.6875-1.9531 1.0469-3.7891 2.2969-5.4844 3.7266-4.7539 3.5117-8.2812 8.4336-10.078 14.062-1.707 4.1719-2.582 8.6406-2.5781 13.148 0.17187 6.6523 2.1094 13.137 5.6133 18.793 3.5039 5.6523 8.4531 10.273 14.332 13.387 14.578 7.2422 32.672 5.6484 44.531-6.1875 5.5352-5.668 9.0977-12.969 10.164-20.82 1.0625-7.8516-0.42969-15.836-4.2578-22.773z"/>
 </g>
</svg>

<?xml version="1.0" encoding="UTF-8" standalone="no"?>
<!DOCTYPE svg PUBLIC "-//W3C//DTD SVG 1.1//EN" "http://www.w3.org/Graphics/SVG/1.1/DTD/svg11.dtd">
<svg width="100%" height="100%" viewBox="0 0 399 512" version="1.1" xmlns="http://www.w3.org/2000/svg" xmlns:xlink="http://www.w3.org/1999/xlink" xml:space="preserve" xmlns:serif="http://www.serif.com/" style="fill-rule:evenodd;clip-rule:evenodd;stroke-linejoin:round;stroke-miterlimit:2;">
    <g transform="matrix(1,0,0,1,-185.054,-66.6103)">
        <g transform="matrix(0.480053,0,0,0.480053,96.2182,34.6339)">
            <path d="M1009.1,785.7L1005.51,782.817C1003.49,781.497 1001.13,780.751 998.717,780.661C994.678,779.981 990.53,780.743 986.998,782.817C984.361,784.505 982.123,786.743 980.436,789.38C979.252,791.298 978.498,793.446 978.233,795.684C977.447,798.919 977.447,802.294 978.233,805.528C979.33,809.372 981.658,812.751 984.865,815.138C985.998,816.259 987.404,817.063 988.943,817.481C990.361,818.321 991.983,818.759 993.631,818.747C997.674,819.419 1001.83,818.638 1005.35,816.544C1008.15,814.771 1010.54,812.431 1012.38,809.677C1014.11,806.642 1015.01,803.208 1015.01,799.716C1014.88,794.466 1012.77,789.458 1009.1,785.7L1009.1,785.7Z" style="fill:white;fill-rule:nonzero;"/>
            <path d="M851.2,489.47C852.325,490.036 853.513,490.47 854.739,490.759C859.313,492.396 864.376,491.927 868.567,489.47C871.169,487.97 873.329,485.806 874.825,483.201C876.317,480.595 877.094,477.638 877.075,474.634C876.95,472.947 876.708,471.271 876.348,469.619C876.692,462.982 876.157,456.334 874.755,449.838C873.817,446.537 871.93,443.584 869.333,441.341C866.731,439.099 863.532,437.67 860.13,437.228C853.731,436.384 845.482,439.338 842.599,445.642C842.458,445.908 842.333,446.181 842.224,446.463C842.036,446.767 841.802,447.002 841.638,447.306C840.794,448.642 840.079,450.052 839.505,451.525C838.036,455.252 837.368,459.244 837.536,463.244C837.727,469.146 839.333,474.92 842.224,480.072C843.977,484.189 847.169,487.529 851.2,489.47L851.2,489.47Z" style="fill:white;fill-rule:nonzero;"/>
            <path d="M756.82,179.41C766.968,162.769 768.843,136.801 754.476,122.34C748.968,113.973 736.499,109.848 729.046,119.059C716.741,134.247 717.327,157.004 722.835,174.957C724.214,179.621 727.351,183.566 731.585,185.961C735.82,188.355 740.82,189.012 745.526,187.789C750.237,186.566 754.284,183.562 756.819,179.41L756.82,179.41Z" style="fill:white;fill-rule:nonzero;"/>
            <path d="M335.16,442.52C340.125,443.188 345.168,442.047 349.363,439.305C353.558,436.563 356.629,432.407 358.011,427.59C359.301,423.254 360.636,418.942 361.926,414.629C362.969,410.629 362.816,406.41 361.48,402.5C360.148,398.586 357.695,395.152 354.425,392.621C351.57,390.367 348.148,388.949 344.535,388.52C342.367,388.227 340.164,388.227 337.996,388.52C330.636,389.059 322.527,393.934 321.449,401.692L321.238,403.121C318.191,408.77 317.699,415.801 317.113,422.082C317.089,427.606 319.285,432.91 323.207,436.801C326.488,439.919 330.671,441.923 335.16,442.52L335.16,442.52Z" style="fill:white;fill-rule:nonzero;"/>
            <path d="M228.7,919.69C227.36,916.499 225.161,913.741 222.348,911.721C217.903,907.858 212.25,905.663 206.364,905.51L200.763,906.26C198.079,906.877 195.603,908.178 193.568,910.034C189.911,912.756 187.255,916.612 186.021,921.003C184.732,925.436 184.732,930.139 186.021,934.573C186.903,937.167 188.193,939.604 189.841,941.792C192.298,947.807 197.392,952.358 203.646,954.12C210.892,956.014 218.599,953.979 223.966,948.752C225.536,947.217 226.9,945.483 228.021,943.596C229.216,941.659 230.079,939.538 230.575,937.315C231.15,935.096 231.411,932.807 231.349,930.518C231.314,928.135 230.946,925.768 230.247,923.487C229.825,922.186 229.306,920.917 228.7,919.69L228.7,919.69Z" style="fill:white;fill-rule:nonzero;"/>
            <path d="M747.66,901.24C747.66,900.959 747.66,900.678 747.777,900.373C747.765,900.287 747.765,900.201 747.777,900.115C747.66,900.49 747.66,900.865 747.66,901.24Z" style="fill:white;fill-rule:nonzero;"/>
            <path d="M726.33,884.2L726.752,883.942L726.611,883.942L726.33,884.2Z" style="fill:white;fill-rule:nonzero;"/>
            <path d="M1008.1,907.17C1008.1,906.467 1008.31,905.787 1008.38,905.061C1008.88,901.385 1007.61,897.693 1004.96,895.1C1003.7,892.24 1002.01,889.584 999.967,887.225C993.264,879.537 982.342,884.717 979.272,892.686C977.354,898.322 976.167,904.182 975.733,910.124C969.311,919.733 957.663,923.366 945.264,919.077C927.967,913.124 918.053,896.366 917.678,878.788C917.28,860.765 921.967,842.319 924.334,824.53C927.053,804.116 929.233,783.632 930.334,763.077C932.615,727.132 930.49,691.046 924.006,655.617C917.866,623.883 907.6,588.492 884.936,564.445C882.03,560.55 877.147,558.663 872.374,559.593C861.64,561.679 857.866,570.023 861.686,580.241C871.733,606.311 877.143,633.94 877.67,661.874C877.834,675.257 878.303,691.265 871.155,703.218C864.006,715.171 851.96,718.195 843.03,707.132C827.913,688.382 835.834,657.116 830.632,635.038C824.421,608.718 802.507,590.507 795.476,564.726C787.999,537.515 796.718,507.749 799.647,480.468C802.413,454.827 801.64,428.226 794.491,403.288C786.874,377.343 769.132,356.249 760.483,330.866C751.647,304.874 754.858,278.343 754.764,251.554C758.35,242.929 754.061,230.624 741.803,230.46C693.967,229.523 667.975,276.374 671.303,319.522C673.085,342.725 688.811,370.288 681.826,393.256C678.006,405.795 667.553,410.529 655.295,404.975C644.936,400.288 638.889,389.858 634.6,379.827C613.67,329.788 613.319,269.667 614.795,216.277C615.592,188.152 617.795,160.261 619.249,132.23C620.163,114.605 621.1,93.535 610.67,78.628C609.956,76.312 609.104,74.042 608.116,71.831C604.436,63.558 590.116,65.644 588.475,74.386C584.983,93.136 582.522,109.542 572.748,126.605C563.373,143.011 550.857,157.074 538.67,171.394C515.397,198.816 496.834,228.042 487.459,263.128C478.845,295.987 478.236,330.437 485.678,363.578C492.404,393.367 515.936,441.672 481.834,463.469C479.939,464.664 478.279,466.199 476.935,467.992C455.841,485.523 437.724,508.14 423.029,530.219C413.209,544.918 404.752,560.485 397.763,576.719C391.224,591.883 387.849,612.508 376.669,624.953C371.982,630.086 362.021,635.898 357.286,628.117C354.661,623.805 357.286,615.367 358.06,610.75C360.146,597.93 363.169,584.805 358.458,572.172C352.786,557.031 338.724,554.219 327.989,544.047C322.153,538.641 318.216,531.504 316.751,523.688C315.286,515.872 316.376,507.79 319.857,500.641C321.685,495.216 319.919,489.223 315.435,485.657C310.95,482.095 304.716,481.724 299.841,484.728C262.786,516.486 246.872,570.298 249.966,617.848C251.771,645.387 261.122,669.645 270.614,695.192C275.09,707.239 279.637,719.801 280.317,732.692C281.161,749.098 274.504,763.7 268.176,778.442C249.028,822.973 249.707,871.465 274.176,914.172C285.625,934.207 301.789,951.152 321.262,963.531C344.535,978.179 375.332,985.773 392.231,1009.19C409.129,1032.6 347.465,1053.27 331.528,1053.46C294.262,1053.93 284.161,1004.05 279.966,975.249C277.763,960.179 251.325,963.53 253.13,978.882C253.739,984.132 254.442,989.523 255.263,994.984C250.857,1048.42 268.06,1110.74 324.169,1127.75C351.544,1136.05 384.099,1134.39 411.146,1125.57C424.873,1121.22 437.81,1114.69 449.466,1106.24C458.278,1099.72 463.81,1094.12 467.911,1086.62C528.473,1102.63 602.611,1103.45 661.011,1079.75C700.855,1063.61 739.011,1031.89 752.417,990.692C763.433,986.004 782.487,992.661 792.12,994.536C808.245,997.7 824.276,1001.57 840.542,1003.91C870.284,1008.41 900.94,1010.14 930.261,1002.01C956.347,994.747 978.988,979.746 994.081,957.106C1002.71,944.52 1009.95,924.364 1008.1,907.161L1008.1,907.17ZM418.25,827.998C417.227,829.701 415.891,831.197 414.313,832.404C411.676,834.404 408.481,835.533 405.172,835.639C401.926,835.826 398.699,835.01 395.938,833.295C392.68,832.037 389.871,829.842 387.856,826.99C385.84,824.139 384.715,820.752 384.617,817.264C384.633,813.932 385.609,810.678 387.43,807.889C388.777,804.514 391.266,801.717 394.461,799.99C398.555,797.756 403.336,797.131 407.867,798.232C411.23,799.178 414.281,800.998 416.715,803.506C419.148,806.01 420.875,809.115 421.719,812.506C423.152,817.928 421.859,823.705 418.25,827.998L418.25,827.998ZM643.25,570.868C643.113,568.786 643.543,566.704 644.492,564.845C644.73,564.009 645.102,563.216 645.594,562.501C648.102,557.634 652.824,554.29 658.25,553.548C661.535,553.11 664.875,553.638 667.867,555.071C670.855,556.501 673.359,558.774 675.078,561.61L675.242,561.868C677.801,566.45 678.136,571.946 676.16,576.806C674.179,581.665 670.101,585.361 665.07,586.853C663.148,587.345 661.156,587.486 659.187,587.275L660.007,587.275C655.515,587.447 651.16,585.697 648.03,582.47C646.972,581.345 646.042,580.103 645.265,578.767C644.136,577.04 643.495,575.04 643.413,572.978C643.159,572.306 643.062,571.583 643.132,570.869L643.25,570.868ZM752.87,900.958C752.78,901.747 752.647,902.528 752.472,903.302C751.741,906.294 750.104,908.989 747.784,911.013C746.569,912.501 745.132,913.79 743.518,914.833C741.94,916.071 740.132,916.989 738.198,917.528L734.12,918.067C730.085,917.981 726.229,916.384 723.315,913.591C720.112,910.692 718.225,906.614 718.088,902.294C717.182,898.239 717.737,893.993 719.659,890.31C721.581,886.622 724.745,883.739 728.588,882.161C730.139,881.388 731.827,880.919 733.557,880.779C736.042,880.47 738.565,880.587 741.01,881.13C745.213,882.232 748.788,884.986 750.924,888.771C753.057,892.454 753.71,896.81 752.753,900.959L752.87,900.958ZM783.714,864.958C776.167,866.974 767.519,861.138 767.894,852.911C768.48,840.208 776.988,831.817 771.832,818.552C771.015,816.532 769.992,814.599 768.785,812.786C763.492,807.193 756.629,803.333 749.097,801.724C738.48,798.959 729.667,799.076 722.378,808.334C721.534,809.412 720.784,810.49 720.034,811.521C718.889,824.455 714.655,836.919 707.682,847.873C697.971,862.252 685.159,874.268 670.182,883.029C653.916,892.873 638.94,893.224 620.963,896.365C602.213,899.623 588.713,916.146 569.213,920.037C552.01,923.459 534.291,921.842 517.018,919.897C498.924,917.858 481.088,914.295 465.198,904.944C452.565,897.491 435.573,885.796 432.221,870.749C431.143,865.897 434.565,859.03 440.541,859.804C453.432,861.421 461.471,870.421 472.229,877.124C484.51,884.764 497.284,888.046 511.487,889.827C525.69,891.608 540.503,893.553 554.776,892.334C563.975,891.405 572.819,888.276 580.557,883.217C585.596,878.881 590.799,874.709 595.651,870.186L599.19,864.35C599.565,862.819 599.678,861.233 599.518,859.663C598.503,852.612 592.21,847.546 585.104,848.061C565.557,849.092 546.924,853.897 527.612,845.295C492.456,829.662 466.862,781.076 459.221,745.195C454.206,721.757 458.565,699.586 466.721,677.343C474.878,655.1 479.166,631.031 487.815,609.023C494.612,591.937 506.565,577.031 524.94,572.062C545.049,566.625 567.502,573.75 587.729,575.203C592.233,575.355 596.108,578.429 597.288,582.777C598.464,587.125 596.671,591.734 592.862,594.14C573.385,607.992 553.323,594.14 533.143,601.851C517.393,607.851 513.549,627.89 510.151,644.929C508.862,656.765 510.151,665.413 512.893,671.695C515.253,677.211 520.319,681.093 526.256,681.941C532.198,682.789 538.147,680.476 541.955,675.843C559.322,654.491 590.893,638.976 612.267,636.491C660.314,630.89 707.658,663.327 728.567,705.257C733.091,714.328 727.7,726.351 716.544,726.187C709.091,726 697.349,724.031 690.177,726.492C683.568,728.836 677.521,742.898 695.193,754.875C696.693,755.883 698.451,756.187 699.88,757.008C710.989,758.648 722.286,759.633 733.278,761.977C750.434,765.633 767.45,772.243 781.02,783.586C794.598,794.559 802.856,810.797 803.731,828.234C804.177,842.976 799.349,860.742 783.598,864.961L783.714,864.958Z" style="fill:white;fill-rule:nonzero;"/>
            <path d="M639.56,739.9C635.99,733.99 630.861,729.177 624.732,725.998C618.603,722.818 611.712,721.392 604.826,721.877C598.721,722.158 592.748,723.756 587.318,726.564C585.365,727.611 583.529,728.861 581.834,730.291C577.08,733.803 573.552,738.725 571.756,744.353C570.049,748.525 569.174,752.994 569.178,757.501C569.349,764.153 571.287,770.638 574.791,776.294C578.295,781.946 583.244,786.567 589.123,789.681C603.701,796.923 621.795,795.329 633.654,783.494C639.189,777.826 642.752,770.525 643.818,762.674C644.88,754.822 643.388,746.838 639.56,739.901L639.56,739.9Z" style="fill:white;fill-rule:nonzero;"/>
        </g>
    </g>
</svg>
